outputs/icons/content/push_pin_sharp.svg

<svg xmlns="http://www.w3.org/2000/svg" width="1200" height="1200" fill="none"><g clip-path="url(#a)"><path fill="#000" fill-rule="evenodd" d="M800 450V200h100V100H300v100h100v250c0 83-67 150-150 150v100h298.5v350l50 50 50-50V700H950V600c-83 0-150-67-150-150"/></g><defs><clipPath id="a"><path fill="#fff" d="M0 0h1200v1200H0z"/></clipPath></defs></svg>

<svg width="1200" height="1200" viewBox="0 0 1200 1200" fill="none" xmlns="http://www.w3.org/2000/svg"><g clip-path="url(#clip0_225_3132)"><path fill-rule="evenodd" d="M800 450V200H900V100H300V200H400V450C400 533 333 600 250 600V700H548.5V1050L598.5 1100L648.5 1050V700H950V600C867 600 800 533 800 450Z" fill="#1D1E23"/></g><defs><clipPath id="clip0_225_3132"><path width="24" fill="white" d="M0 0H1200V1200H0V0z"/></clipPath></defs></svg>
